raw-svg/angle-double-down.svg

<svg viewBox="0 0 24 24" xmlns="http://www.w3.org/2000/svg"><path d="m12 17.25a.74.74 0 0 1 -.53-.22l-3.47-3.5a.75.75 0 0 1 1-1.06l3 3 3-3a.75.75 0 0 1 1 1.06l-3.47 3.47a.74.74 0 0 1 -.53.25z"/><path d="m12 11.75a.74.74 0 0 1 -.53-.22l-3.47-3.53a.75.75 0 0 1 1-1l3 3 3-3a.75.75 0 0 1 1 1l-3.5 3.5a.74.74 0 0 1 -.5.25z"/></svg>

<svg xmlns="http://www.w3.org/2000/svg" viewBox="0 0 24 24"><g id="angle-double-down"><path d="M12,17.25a.74.74,0,0,1-.53-.22L8,13.53A.75.75,0,0,1,9,12.47l3,3,3-3A.75.75,0,0,1,16,13.53L12.53,17A.74.74,0,0,1,12,17.25Z"/><path d="M12,11.75a.74.74,0,0,1-.53-.22L8,8A.75.75,0,0,1,9,7l3,3,3-3A.75.75,0,0,1,16,8l-3.5,3.5A.74.74,0,0,1,12,11.75Z"/></g></svg>
